Numix-GalliumOS/22/devices/harddrive.svg

<?xml version="1.0" encoding="UTF-8" standalone="no"?>
<svg
   xmlns:dc="http://purl.org/dc/elements/1.1/"
   xmlns:cc="http://creativecommons.org/ns#"
   xmlns:rdf="http://www.w3.org/1999/02/22-rdf-syntax-ns#"
   xmlns:svg="http://www.w3.org/2000/svg"
   xmlns="http://www.w3.org/2000/svg"
   xmlns:sodipodi="http://sodipodi.sourceforge.net/DTD/sodipodi-0.dtd"
   xmlns:inkscape="http://www.inkscape.org/namespaces/inkscape"
   width="22"
   height="22"
   viewBox="0 0 22 22"
   id="svg2"
   version="1.1"
   inkscape:version="0.91 r"
   sodipodi:docname="yast_idetude.svg">
  <metadata
     id="metadata16">
    <rdf:RDF>
      <cc:Work
         rdf:about="">
        <dc:format>image/svg+xml</dc:format>
        <dc:type
           rdf:resource="http://purl.org/dc/dcmitype/StillImage" />
      </cc:Work>
    </rdf:RDF>
  </metadata>
  <defs
     id="defs14" />
  <sodipodi:namedview
     pagecolor="#ffffff"
     bordercolor="#666666"
     borderopacity="1"
     objecttolerance="10"
     gridtolerance="10"
     guidetolerance="10"
     inkscape:pageopacity="0"
     inkscape:pageshadow="2"
     inkscape:window-width="1366"
     inkscape:window-height="704"
     id="namedview12"
     showgrid="true"
     inkscape:zoom="10.727273"
     inkscape:cx="11"
     inkscape:cy="11"
     inkscape:window-x="0"
     inkscape:window-y="27"
     inkscape:window-maximized="1"
     inkscape:current-layer="svg2">
    <inkscape:grid
       type="xygrid"
       id="grid3014" />
  </sodipodi:namedview>
  <rect
     style="fill:#839496;fill-opacity:1;stroke:none"
     id="rect3011"
     width="12"
     height="16"
     x="5"
     y="3"
     ry="1" />
  <rect
     style="opacity:0.46366781;fill:#fdf6e3;fill-opacity:1;stroke:none"
     id="rect3781"
     width="2"
     height="16"
     x="13.979818"
     y="3" />
  <path
     style="fill:#073642;fill-opacity:1"
     d="M 11.02336,5.9799084 C 10.378086,5.9731684 9.7239423,6.11991 9.1137193,6.4432779 7.1610007,7.4780535 6.4361226,9.8965885 7.4708695,11.84925 c 0.8576415,1.618449 2.6598685,2.400675 4.3668975,2.036018 l -0.7442,-2.625761 c -0.02441,0.0013 -0.04547,0.01405 -0.07022,0.01405 -0.744471,0 -1.3479827,-0.603514 -1.3479827,-1.3479835 0,-0.744467 0.6035117,-1.347979 1.3479827,-1.347979 0.744472,0 1.347985,0.603512 1.347985,1.347979 0,0.3328215 -0.123046,0.6354225 -0.322955,0.8705725 l 1.727105,2.064101 C 15.027761,11.651802 15.389125,9.7143865 14.533727,8.1001765 13.822345,6.7577186 12.442956,5.9946427 11.023355,5.9799084 z"
     id="path6"
     inkscape:connector-curvature="0" />
  <path
     style="fill:#073642;fill-opacity:1;stroke:none"
     d="m 11.957317,12.493273 1.5,4.5 1.5,0 0,-1 z"
     id="path3879"
     inkscape:connector-curvature="0"
     sodipodi:nodetypes="ccccc" />
  <path
     style="opacity:0.49480968;fill:#93a1a1;fill-opacity:1"
     d="m 7.2184096,11.160831 c 0.358384,1.12383 1.2171335,2.056293 2.3637977,2.504793 L 10.523375,11.157563 C 10.387334,11.103433 10.265083,11.027299 10.148026,10.926227 9.9590823,10.763086 9.8210103,10.558959 9.7465523,10.33841 l -2.5281427,0.822421 z"
     id="path6-5"
     inkscape:connector-curvature="0" />
  <path
     inkscape:connector-curvature="0"
     style="opacity:0.24567476;fill:#268bd2;fill-opacity:1"
     d="m 7.1036435,9.1035305 c -0.2515446,1.1524525 0.025922,2.3893645 0.7947203,3.3511135 l 2.0690975,-1.70146 c -0.09075,-0.114893 -0.158556,-0.241958 -0.209395,-0.388018 -0.08206,-0.235756 -0.09957,-0.4815695 -0.05378,-0.7097975 L 7.1036435,9.1035305 z"
     id="path6-5-8"
     inkscape:transform-center-x="2.5095619"
     inkscape:transform-center-y="0.86106179" />
  <path
     inkscape:connector-curvature="0"
     style="opacity:0.49480968;fill:#93a1a1;fill-opacity:1"
     d="M 14.772636,8.6482715 C 14.406242,7.5270276 13.540862,6.6007144 12.391018,6.160408 l -0.923251,2.5147115 c 0.136424,0.05315 0.259217,0.128418 0.376992,0.228652 0.190103,0.161788 0.329627,0.364924 0.405657,0.584937 l 2.52222,-0.840437 z"
     id="path6-5-9" />
  <path
     inkscape:connector-curvature="0"
     style="opacity:0.19031145;fill:#268bd2;fill-opacity:1"
     d="M 14.902077,10.7047 C 15.145392,9.5504825 14.859107,8.3155825 14.083468,7.3593419 l -2.056915,1.7161786 c 0.09157,0.114243 0.160279,0.240821 0.212159,0.386514 0.08374,0.235165 0.103003,0.480844 0.05885,0.7093945 l 2.604523,0.533271 z"
     id="path6-5-8-1"
     inkscape:transform-center-x="-2.5064827"
     inkscape:transform-center-y="-0.88600496" />
</svg>

<svg xmlns="http://www.w3.org/2000/svg" viewBox="0 0 22 22">
 <rect width="12" height="16" x="5" y="3" rx="1" style="fill:#839496;fill-opacity:1;stroke:none"/>
 <rect width="2" height="16" x="13.98" y="3" style="fill:#fdf6e3;opacity:0.464;fill-opacity:1;stroke:none"/>
 <path d="m 11.02 5.98 c -0.645 -0.007 -1.299 0.14 -1.91 0.463 -1.953 1.035 -2.678 3.453 -1.643 5.406 c 0.858 1.618 2.66 2.401 4.367 2.036 l -0.744 -2.626 c -0.024 0.001 -0.045 0.014 -0.07 0.014 -0.744 0 -1.348 -0.604 -1.348 -1.348 0 -0.744 0.604 -1.348 1.348 -1.348 0.744 0 1.348 0.604 1.348 1.348 0 0.333 -0.123 0.635 -0.323 0.871 l 1.727 2.064 c 1.252 -1.208 1.614 -3.146 0.758 -4.76 -0.711 -1.342 -2.091 -2.106 -3.51 -2.12 z" style="fill:#073642;fill-opacity:1"/>
 <path d="m 11.957 12.493 1.5 4.5 1.5 0 0 -1 z" style="fill:#073642;fill-opacity:1;stroke:none"/>
 <path d="m 7.218 11.161 c 0.358 1.124 1.217 2.056 2.364 2.505 l 0.941 -2.508 c -0.136 -0.054 -0.258 -0.13 -0.375 -0.231 -0.189 -0.163 -0.327 -0.367 -0.401 -0.588 l -2.528 0.822 z" style="fill:#93a1a1;opacity:0.495;fill-opacity:1"/>
 <path d="m 7.104 9.104 c -0.252 1.152 0.026 2.389 0.795 3.351 l 2.069 -1.701 c -0.091 -0.115 -0.159 -0.242 -0.209 -0.388 -0.082 -0.236 -0.1 -0.482 -0.054 -0.71 l -2.601 -0.552 z" style="fill:#268bd2;opacity:0.246;fill-opacity:1"/>
 <path d="m 14.773 8.648 c -0.366 -1.121 -1.232 -2.048 -2.382 -2.488 l -0.923 2.515 c 0.136 0.053 0.259 0.128 0.377 0.229 0.19 0.162 0.33 0.365 0.406 0.585 l 2.522 -0.84 z" style="fill:#93a1a1;opacity:0.495;fill-opacity:1"/>
 <path d="m 14.902 10.705 c 0.243 -1.154 -0.043 -2.389 -0.819 -3.345 l -2.057 1.716 c 0.092 0.114 0.16 0.241 0.212 0.387 0.084 0.235 0.103 0.481 0.059 0.709 l 2.605 0.533 z" style="fill:#268bd2;opacity:0.19;fill-opacity:1"/>
</svg>
